!!!!SEGMENT: pl-kk--kk-i-2--019_anonim--magnificat-octavi-toni.krn
!!!cenid: 16xx:1632
!!!COM: Anonim
!!!COM-rismid: pe30004985
!!!CDT:
!!!CNT:
!!!OTL: [Magnificat] Octavi Toni
!!!PDT:
!!!AGN: Sacred
!!!SMS-siglum: PL-Kk
!!!SMS-shelfmark: Kk.I.2
!!!SMS-shelfwork: 019 W
!!!NIFC-rismid: 300258035
!!!URL-scan: http://repozytorium.nifc.pl/skany/pl-kk-nut--i-2
!!!ONB-nifc: skany: C: 0042-0043; A: 0145-0146; T: 0248-0249; B: 0346-0347;
**kern	**text	**text	**kern	**text	**text	**kern	**text	**text	**kern	**text	**text
*part4	*part4	*part4	*part3	*part3	*part3	*part2	*part2	*part2	*part1	*part1	*part1
*staff4	*staff4	*staff4	*staff3	*staff3	*staff3	*staff2	*staff2	*staff2	*staff1	*staff1	*staff1
*I"BASVS	*	*	*I"TENOR	*	*	*I"ALTVS	*	*	*I"DISCANTVS	*	*
*I'B	*	*	*I'T	*	*	*I'A	*	*	*I'S	*	*
*Imale	*	*	*Imale	*	*	*Ialto	*	*	*Ivox	*	*
*Ibass	*	*	*Itenor	*	*	*Ialto	*	*	*Isoprn	*	*
*clefC4	*	*	*clefC4	*	*	*clefC3	*	*	*clefC1	*	*
*k[]	*	*	*k[]	*	*	*k[]	*	*	*k[]	*	*
*C:	*	*	*C:	*	*	*C:	*	*	*C:	*	*
*M4/2	*	*	*M4/2	*	*	*M4/2	*	*	*M4/2	*	*
*met(c|)	*	*	*met(c)	*	*	*met(c)	*	*	*met(c)	*	*
=1	=1	=1	=1	=1	=1	=1	=1	=1	=1	=1	=1
!LO:TX:t=P:problem: inne metrum w basusie	!	!	!	!	!	!	!	!	!	!	!
!	!	!	!	!	!	!	!	!	!LO:TX:a:B:t=Prestissimo	!	!
!!LO:TX:t=P:problem: brak kresek taktowych w źródle	!	!	!	!	!	!	!	!	!	!	!
!!LO:TX:t=P:problem: all\right or middle	!	!	!	!	!	!	!	!	!	!	!
0r	.	.	0r	.	.	0r	.	.	1g	Et	Si-
.	.	.	.	.	.	.	.	.	1a	e-	-cut
=2	=2	=2	=2	=2	=2	=2	=2	=2	=2	=2	=2
0r	.	.	0r	.	.	1r	.	.	2g/	-xul-	.
.	.	.	.	.	.	.	.	.	1cc	-ta-	e-
.	.	.	.	.	.	1G	Et	Si-	.	.	.
.	.	.	.	.	.	.	.	.	2b\	.	-rat
=3	=3	=3	=3	=3	=3	=3	=3	=3	=3	=3	=3
0r	.	.	0r	.	.	1A	.	-cut	1cc	-vit	.
.	.	.	.	.	.	2G/	e-	.	2r	.	.
*	*	*	*	*	*	*	*	*	*	*ij	*ij
.	.	.	.	.	.	1c\	-xul-	e-	2c/	et	si-
=4	=4	=4	=4	=4	=4	=4	=4	=4	=4	=4	=4
1G	Et	Si-	0r	.	.	.	.	.	1d	e-	-cut
.	.	.	.	.	.	2B/	-ta-	-rat	.	.	.
1A	e-	-cut	.	.	.	1c	-vit	.	1c	.	.
=5	=5	=5	=5	=5	=5	=5	=5	=5	=5	=5	=5
2G/	-xul-	.	1r	.	.	2B/	.	.	2d/	.	.
1c	-ta-	.	.	.	.	2c/	.	.	2e/	.	.
.	.	.	2r	.	.	1d	.	.	2f/	.	.
2B\	.	e-	2G/	Et	Si-	.	.	.	1g\	.	.
=6	=6	=6	=6	=6	=6	=6	=6	=6	=6	=6	=6
1c	-vit	-rat	1A	.	-cut	1c	ſpi-	.	.	.	.
.	.	.	.	.	.	.	.	.	2f/	-xul-	e-
2r	.	.	2G/	e-	e-	2d/	-ri-	.	2g/	.	.
*	*ij	*ij	*	*	*	*	*	*	*	*	*
2C/	et	si-	1c\	-xul-	.	2e/	-tus	.	1a\	.	.
=7	=7	=7	=7	=7	=7	=7	=7	=7	=7	=7	=7
1D	e-	.	.	.	.	1f	me-	.	.	.	.
.	.	.	2B/	-ta-	-rat	.	.	.	4g/	.	.
.	.	.	.	.	.	.	.	.	4f/	.	.
*lig	*	*	*	*	*	*	*	*	*	*	*
1C	-xul-	-cut	1c	-vit	in	1e	-us	.	2a/	-ta-	-rat
.	.	.	.	.	.	.	.	.	2.g/	.	.
*	*	*	*	*	*	*	*	*	*	*	*Xij
=8	=8	=8	=8	=8	=8	=8	=8	=8	=8	=8	=8
1G	.	.	2d/	.	prin-	1r	.	.	.	.	.
.	.	.	.	.	.	.	.	.	4f/	.	.
.	.	.	1e	.	-ci-	.	.	.	4e/	.	.
.	.	.	.	.	.	.	.	.	4d/	.	.
*Xlig	*	*	*	*	*	*	*ij	*	*	*	*
0A	-ta-	e-	.	.	.	2r	.	.	1c	-vit	.
.	.	.	4d\	.	-pi-	4A/	spi-	in	.	.	.
.	.	.	4c\	.	.	4B/	.	.	.	.	.
*	*	*	*	*	*	*	*	*	*	*Xij	*
=9	=9	=9	=9	=9	=9	=9	=9	=9	=9	=9	=9
.	.	.	2.e\	.	-o	4c/	-ri-	.	2r	.	.
.	.	.	.	.	.	4d/	.	.	.	.	.
!	!	!	!	!	!	!	!	!	!LO:SIC:v:t=custos d	!	!
.	.	.	.	.	.	4e/	-tus	.	2c/	ſpi-	ſi-
.	.	.	4d\	.	.	4f/	.	.	.	.	.
!	!	!	!	!	!	!	!	!	!LO:LB:g=original	!	!
1G	-vit	-rat	1B	.	.	2g\	me-	.	2.d/	-ri-	.
!	!	!	!	!	!	!LO:SIC:v:t=custos A	!	!	!	!	!
.	.	.	.	.	.	2G/	-us	.	.	.	.
.	.	.	.	.	.	.	.	.	4e/	-tus	-cut
*	*Xij	*Xij	*	*	*	*	*Xij	*	*	*	*
!	!	!	!	!	!	!LO:LB:g=original	!	!	!	!	!
=10	=10	=10	=10	=10	=10	=10	=10	=10	=10	=10	=10
0r	.	.	2r	.	.	4A/	.	prin-	2f/	.	.
.	.	.	.	.	.	4B/	.	-ci-	.	.	.
.	.	.	2.e\	.	.	4c/	.	-pi-	2.g/	.	.
.	.	.	.	.	.	4d/	.	-o	.	.	.
.	.	.	.	.	.	4e\	.	.	.	.	.
.	.	.	4d\	.	.	4f\	.	.	4f/	me-	e-
.	.	.	2c/	.	.	1g\	.	.	4g/	-us	-rat
.	.	.	.	.	.	.	.	.	4a/	.	.
=11	=11	=11	=11	=11	=11	=11	=11	=11	=11	=11	=11
0r	.	.	2B/	.	.	.	.	.	4b\	.	.
.	.	.	.	.	.	.	.	.	4g/	.	.
.	.	.	2c/	.	.	4f\	.	.	1cc	.	.
.	.	.	.	.	.	4e\	.	.	.	.	.
.	.	.	1G	.	.	4d\	.	.	.	.	.
.	.	.	.	.	.	4c\	.	.	.	.	.
.	.	.	.	.	.	2d\	.	.	2b\	.	.
=12	=12	=12	=12	=12	=12	=12	=12	=12	=12	=12	=12
1C	ſpi-	in	2r	.	.	2c\	.	.	2.cc\	.	in
.	.	.	1c	ſpi-	et	2e\	.	.	.	.	.
.	.	.	.	.	.	.	.	.	4b\	.	.
2F/	-ri-	prin-	.	.	.	2f\	ſpi-	et	2a\	.	.
!	!	!	!LO:SIC:v:t=custos c	!	!	!	!	!	!	!	!
2G/	-tus	.	2B/	-ri-	.	2d\	-ri-	.	2.g/	.	.
!	!	!	!LO:LB:g=original	!	!	!	!	!	!	!	!
=13	=13	=13	=13	=13	=13	=13	=13	=13	=13	=13	=13
*	*	*	*lig	*	*	*	*	*	*	*	*
2E/	.	.	1c	-tus	nunc	2e\	-tus	nu(n)c	.	.	.
.	.	.	.	.	.	.	.	.	4e/	.	prin-
2.F/	.	.	.	.	.	2.A/	.	.	2.a/	.	.
.	.	.	1d	.	.	.	.	.	.	.	.
4E/	me-	-ci-	.	.	.	4B/	me-	et	4g/	me-	-ci-
4D/	.	.	.	.	.	1c\	.	.	4f/	.	.
4C/	.	-pi-	.	.	.	.	.	.	4e/	.	.
*	*	*	*Xlig	*	*	*	*	*	*	*	*
=14	=14	=14	=14	=14	=14	=14	=14	=14	=14	=14	=14
1D	.	-o	1d	.	et	.	.	.	1f	.	-pi-
.	.	.	.	.	.	2B/	-us	.	.	.	.
2C/	-us	.	4G/	me-	ſem-	2c/	.	.	1e	-us	-o
.	.	.	4A/	.	.	.	.	.	.	.	.
2r	.	.	4B\	-us	-per	4G/	.	.	.	.	.
.	.	.	4c\	.	.	4A/	.	.	.	.	.
=15	=15	=15	=15	=15	=15	=15	=15	=15	=15	=15	=15
2r	.	.	2d\	.	.	4B/	.	ſem-	1r	.	.
.	.	.	.	.	.	4G/	.	.	.	.	.
4C/	ſp(i)-	et	1e	.	.	1c	.	-per	.	.	.
4D/	-ri-	.	.	.	.	.	.	.	.	.	.
4E/	-(tu)s	nu(n)c	.	.	.	.	.	.	4g/	.	.
4F/	.	.	.	.	.	.	.	.	4a/	ſpi-	.
4G/	.	.	1d\	.	.	2B/	.	.	4b\	.	et
!LO:SIC:v:t=custos B	!	!	!	!	!	!	!	!	!	!	!
4A/	.	.	.	.	.	.	.	.	4cc\	-ri-	.
!LO:LB:g=original	!	!	!	!	!	!	!	!	!	!	!
=16	=16	=16	=16	=16	=16	=16	=16	=16	=16	=16	=16
2B/	.	.	.	.	.	2G/	.	.	2dd\	.	.
1c	.	.	2c\	.	.	2r	.	.	1ee	-tus	.
.	.	.	1f	.	.	1r	.	.	.	.	.
2B/	.	.	.	.	.	.	.	.	1dd\	.	nunc
=17	=17	=17	=17	=17	=17	=17	=17	=17	=17	=17	=17
*	*	*	*	*	*	*	*	*ij	*	*	*
2c\	.	.	1e	.	.	1g	ſpi-	et	.	.	.
2C/	.	et	.	.	.	.	.	.	2cc\	.	et
4D/	me-	.	1d	.	.	2f\	-ri-	nunc	1ff	.	.
4E/	.	ſem-	.	.	.	.	.	.	.	.	.
4F/	.	.	.	.	.	2.a\	-tus	.	.	.	.
4G/	.	.	.	.	.	.	.	.	.	.	.
=18	=18	=18	=18	=18	=18	=18	=18	=18	=18	=18	=18
2A/	.	.	2c\	.	.	.	.	.	2ee\	.	.
!	!	!	!	!	!	!LO:SIC:v:t=custos g	!	!	!	!	!
.	.	.	.	.	.	4g\	.	et	.	.	.
!	!	!	!	!	!	!LO:LB:g=original	!	!	!	!	!
2B/	.	.	2d\	.	et	2.g\	.	sem-	2.dd\	me-	ſem-
2c\	.	.	2e\	.	in	.	.	.	.	.	.
.	.	.	.	.	.	4e\	me-	.	4cc\	.	.
2F/	.	.	2f\	.	ſae-	2a\	.	.	1cc\	.	.
=19	=19	=19	=19	=19	=19	=19	=19	=19	=19	=19	=19
1G	.	.	1d	.	-cu-	1g	.	.	.	.	.
!	!	!	!	!	!	!	!	!	!LO:SIC:v:t=custos cc	!	!
.	.	.	.	.	.	.	.	.	2b\	.	.
!	!	!	!	!	!	!	!	!	!LO:LB:g=original	!	!
0C	-us	-per	0c	.	-la	1e	-us	-per	1cc	-us	-per
*	*	*	*	*	*	*	*	*Xij	*	*	*
=20	=20	=20	=20	=20	=20	=20	=20	=20	=20	=20	=20
.	.	.	.	.	.	2r	.	.	2r	.	.
.	.	.	.	.	.	1e	in	et	1cc	In	.
1r	.	.	1r	.	.	.	.	.	.	.	.
.	.	.	.	.	.	2e\	.	in	2cc\	de-	.
=21	=21	=21	=21	=21	=21	=21	=21	=21	=21	=21	=21
0r	.	.	0r	.	.	2f\	De-	ſae-	1cc	-o	.
.	.	.	.	.	.	2.e\	-o	-cu-	.	.	.
.	.	.	.	.	.	.	.	.	2r	.	.
.	.	.	.	.	.	4d/	.	-la	.	.	.
.	.	.	.	.	.	4c/	.	.	2cc\	ſa-	ſae-
.	.	.	.	.	.	4B/	.	.	.	.	.
=22	=22	=22	=22	=22	=22	=22	=22	=22	=22	=22	=22
0r	.	.	0r	.	.	2A/	.	.	2cc\	-lu-	-cu-
.	.	.	.	.	.	2d/	.	.	2a/	-ta-	-lo-
.	.	.	.	.	.	2e\	ſa-	ſae-	1cc	-ri	-ru(m)
.	.	.	.	.	.	1f\	-lu-	-cu-	.	.	.
=23	=23	=23	=23	=23	=23	=23	=23	=23	=23	=23	=23
0r	.	.	1r	.	.	.	.	.	1dd	me-	A-
.	.	.	.	.	.	2g\	-ta-	-lo-	.	.	.
.	.	.	1.c	In	ſae-	2.e\	-ri	-ru(m)	1cc	-o	-m(en)
.	.	.	.	.	.	4f\	.	.	.	.	.
=24	=24	=24	=24	=24	=24	=24	=24	=24	=24	=24	=24
2r	.	.	.	.	.	2g\	.	.	0r	.	.
1F	In	et	2c/	de-	-cu-	2.a\	.	.	.	.	.
.	.	.	1c	-o	-la	.	.	.	.	.	.
.	.	.	.	.	.	4g\	.	.	.	.	.
2F/	de-	in	.	.	.	1f\	.	.	.	.	.
=25	=25	=25	=25	=25	=25	=25	=25	=25	=25	=25	=25
1F	-o	ſae-	2r	.	.	.	.	.	0r	.	.
.	.	.	2c/	ſa-	ſae-	4e\	me-	.	.	.	.
.	.	.	.	.	.	4d\	-o	.	.	.	.
1F	ſa-	-cu-	2c/	-lu-	-cu-	2.f\	.	A-	.	.	.
.	.	.	2A/	-ta-	-lo-	.	.	.	.	.	.
.	.	.	.	.	.	4g\	.	-men	.	.	.
=26	=26	=26	=26	=26	=26	=26	=26	=26	=26	=26	=26
1F	-lu-	-la	1c	-ri	-ru(m)	1a	.	.	0r	.	.
!	!	!	!LO:SIC:v:t=custos c	!	!	!	!	!	!	!	!
1D	-ta-	ſae-	1d	me-	A-	2r	.	.	.	.	.
.	.	.	.	.	.	2.a\	in	.	.	.	.
!	!	!	!LO:LB:g=original	!	!	!	!	!	!	!	!
=27	=27	=27	=27	=27	=27	=27	=27	=27	=27	=27	=27
1F	-ri	-cu-	1c	-o	-me(n)	.	.	.	2r	.	.
.	.	.	.	.	.	4g\	.	ſae-	.	.	.
*	*	*	*	*	*	*	*	*	*	*ij	*ij
!	!	!	!	!	!	!LO:SIC:v:t=custos e	!	!	!	!	!
.	.	.	.	.	.	1f	.	-cu-	2cc\	sa-	sae-
1G	me-	-lo-	1r	.	.	.	.	.	2b\	-lu-	-cu-
!	!	!	!	!	!	!LO:LB:g=original	!	!	!	!	!
.	.	.	.	.	.	2.e/	.	.	2g/	-ta-	-lo-
=28	=28	=28	=28	=28	=28	=28	=28	=28	=28	=28	=28
2.F/	-o	-ru(m)	0r	.	.	.	.	.	2.a/	-ri	-rum
.	.	.	.	.	.	8d/	De-	-lo-	.	.	.
.	.	.	.	.	.	8c/	.	.	.	.	.
.	.	.	.	.	.	2d/	.	-ru(m)	.	.	.
4E/	.	A-	.	.	.	.	.	.	8g/	.	.
.	.	.	.	.	.	.	.	.	8f/	.	.
1C	.	-m(en)	.	.	.	1e	-o	.	2a/	me-	a-
.	.	.	.	.	.	.	.	.	2g/	-o	-men
*	*	*	*	*	*	*	*	*	*	*Xij	*Xij
=29	=29	=29	=29	=29	=29	=29	=29	=29	=29	=29	=29
2r	.	.	1.c	in	ſae-	2.g\	.	.	2r	.	.
1C	in	ſae-	.	.	.	.	.	.	1e	in	.
.	.	.	.	.	.	4g\	.	A-	.	.	.
.	.	.	.	.	.	1g	.	-m(en)	.	.	.
2C/	de-	-cu-	2c\	de-	-cu-	.	.	.	2e/	de-	.
=30	=30	=30	=30	=30	=30	=30	=30	=30	=30	=30	=30
1C	-o	-la	1c	-o	-la	2r	.	.	1e	-o	.
.	.	.	.	.	.	2g\	ſa-	ſae-	.	.	.
2r	.	.	2r	.	.	2g\	-lu-	-cu-	2r	.	.
2C/	ſa-	ſae-	2c\	ſa-	ſae-	2e\	-ta-	-lo-	2g/	ſa-	ſae-
=31	=31	=31	=31	=31	=31	=31	=31	=31	=31	=31	=31
2C/	-lu-	-cu-	2c\	-lu-	-cu-	2g\	-ri	-ru(m)	2e/	-lu-	-cu-
!LO:SIC:v:t=custos E	!	!	!	!	!	!	!	!	!	!	!
2F/	-ta-	-lo-	2A/	-ta-	-lo-	2a\	me-	A-	2f/	-ta-	-lo-
!LO:LB:g=original	!	!	!	!	!	!	!	!	!	!	!
2E/	-ri	-ru(m)	1c	-ri	-ru(m)	0g	-o	-men	4g/	-ri	-ru(m)
.	.	.	.	.	.	.	.	.	4c/	.	.
2C/	.	.	.	.	.	.	.	.	1cc\	me-	A-
=32	=32	=32	=32	=32	=32	=32	=32	=32	=32	=32	=32
1G	me-	a-	1d	me-	A-	.	.	.	.	.	.
.	.	.	.	.	.	.	.	.	2b\	.	.
!	!	!	!	!	!	!	!	!	!LO:SIC:v:t=custos g	!	!
1C	-o	-m(en)	1c	-o	-m(en)	1g	.	.	1cc	-o	-m(en).
!	!	!	!	!	!	!	!	!	!LO:LB:g=original	!	!
=33||	=33||	=33||	=33||	=33||	=33||	=33||	=33||	=33||	=33||	=33||	=33||
*M2/1	*	*	*M2/1	*	*	*M2/1	*	*	*M2/1	*	*
*met(c|)	*	*	*met(c|)	*	*	*met(c|)	*	*	*met(c|)	*	*
1G	Qui-	.	0r	.	.	0r	.	.	0r	.	.
*lig	*	*	*	*	*	*	*	*	*	*	*
1A	-a	.	.	.	.	.	.	.	.	.	.
=34	=34	=34	=34	=34	=34	=34	=34	=34	=34	=34	=34
1G	.	.	0r	.	.	0r	.	.	1r	.	.
*Xlig	*	*	*	*	*	*	*	*	*	*	*
*lig	*	*	*	*	*	*	*	*	*	*	*
00c	fe-	.	.	.	.	.	.	.	1g	Qui-	.
=35	=35	=35	=35	=35	=35	=35	=35	=35	=35	=35	=35
*	*	*	*	*	*	*	*	*	*lig	*	*
.	.	.	0r	.	.	0r	.	.	1a	-a	.
.	.	.	.	.	.	.	.	.	1g	.	.
*	*	*	*	*	*	*	*	*	*Xlig	*	*
=36	=36	=36	=36	=36	=36	=36	=36	=36	=36	=36	=36
.	.	.	0r	.	.	0r	.	.	1.cc	.	.
0d	.	.	.	.	.	.	.	.	.	.	.
.	.	.	.	.	.	.	.	.	4b\	fe-	.
.	.	.	.	.	.	.	.	.	4a\	.	.
=37	=37	=37	=37	=37	=37	=37	=37	=37	=37	=37	=37
.	.	.	0r	.	.	1d	Qui-	.	1b	-cit	.
*Xlig	*	*	*	*	*	*lig	*	*	*	*	*
1c	-cit	.	.	.	.	1e	-a	.	1cc	.	.
=38	=38	=38	=38	=38	=38	=38	=38	=38	=38	=38	=38
1r	.	.	0G	Qui-	.	1d	.	.	2b\	.	.
.	.	.	.	.	.	.	.	.	4g\	.	.
.	.	.	.	.	.	.	.	.	4a\	.	.
*	*	*	*	*	*	*Xlig	*	*	*	*	*
1B	.	.	.	.	.	1.g'	fe-	.	4b\	.	.
.	.	.	.	.	.	.	.	.	4cc\	.	.
.	.	.	.	.	.	.	.	.	1dd\	.	.
=39	=39	=39	=39	=39	=39	=39	=39	=39	=39	=39	=39
*lig	*	*	*lig	*	*	*	*	*	*	*	*
0c	.	.	0A	-a	.	.	.	.	.	.	.
.	.	.	.	.	.	4f\	-cit	.	2cc\	.	.
.	.	.	.	.	.	4e\	.	.	.	.	.
.	.	.	.	.	.	1f	.	.	1.cc	.	.
=40	=40	=40	=40	=40	=40	=40	=40	=40	=40	=40	=40
0d	.	.	0G	.	.	1.g	.	.	.	.	.
.	.	.	.	.	.	.	.	.	4b\	.	.
.	.	.	.	.	.	.	.	.	4a\	.	.
.	.	.	.	.	.	.	.	.	1b	.	.
.	.	.	.	.	.	2f\	.	.	.	.	.
*Xlig	*	*	*Xlig	*	*	*	*	*	*	*	*
=41	=41	=41	=41	=41	=41	=41	=41	=41	=41	=41	=41
*	*	*	*	*	*	*	*	*	*	*	*
2c\	.	.	0c	fe-	.	2.e\	.	.	1cc	.	.
4C/	.	.	.	.	.	.	.	.	.	.	.
4D/	.	.	.	.	.	4d/	.	.	.	.	.
4E/	.	.	.	.	.	2c/	.	.	2r	.	.
4F/	.	.	.	.	.	.	.	.	.	.	.
4G/	.	.	.	.	.	4B/	.	.	2cc\	mi-	.
!	!	!	!	!	!	!LO:SIC:v:t=custos G	!	!	!	!	!
4A/	.	.	.	.	.	4A/	.	.	.	.	.
!	!	!	!	!	!	!LO:LB:g=original	!	!	!	!	!
=42	=42	=42	=42	=42	=42	=42	=42	=42	=42	=42	=42
2B/	.	.	0d	.	.	2G/	.	.	2b\	-hi	.
1c	.	.	.	.	.	2F/	.	.	2a\	.	.
.	.	.	.	.	.	1G	.	.	2.g/	ma-	.
2B/	.	.	.	.	.	.	.	.	.	.	.
.	.	.	.	.	.	.	.	.	4f/	-gna	.
*	*	*	*	*	*	*	*	*	*	*	*
=43	=43	=43	=43	=43	=43	=43	=43	=43	=43	=43	=43
1c	.	.	0c	-cit	.	2.c/	.	.	1e	.	.
.	.	.	.	.	.	4d/	.	.	.	.	.
1r	.	.	.	.	.	4e\	.	.	2.c/	.	.
.	.	.	.	.	.	4f\	.	.	.	.	.
.	.	.	.	.	.	2.g\	.	.	.	.	.
.	.	.	.	.	.	.	.	.	4d/	.	.
=44	=44	=44	=44	=44	=44	=44	=44	=44	=44	=44	=44
2.c\	mi-	.	0r	.	.	.	.	.	4e/	.	.
.	.	.	.	.	.	4f\	.	.	4f/	.	.
!	!	!	!	!	!	!	!	!	!LO:SIC:v:t=custos f	!	!
.	.	.	.	.	.	4e\	.	.	2g/	.	.
4B\	-hi	.	.	.	.	4d\	.	.	.	.	.
!	!	!	!	!	!	!	!	!	!LO:LB:g=original	!	!
2A/	.	.	.	.	.	2c/	.	.	2f/	.	.
2G/	.	.	.	.	.	2B/	.	.	2e/	.	.
=45	=45	=45	=45	=45	=45	=45	=45	=45	=45	=45	=45
2.F/	ma-	.	0r	.	.	1A	.	.	2f/	.	.
.	.	.	.	.	.	.	.	.	4d/	.	.
4E/	-gna	.	.	.	.	.	.	.	4e/	.	.
!LO:SIC:v:t=custos c	!	!	!	!	!	!	!	!	!	!	!
4D/	.	.	.	.	.	1r	.	.	4f/	.	.
!LO:LB:g=original	!	!	!	!	!	!	!	!	!	!	!
4C/	.	.	.	.	.	.	.	.	4g/	.	.
2.c\	.	.	.	.	.	.	.	.	1a\	.	.
=46	=46	=46	=46	=46	=46	=46	=46	=46	=46	=46	=46
.	.	.	0c	mi-	.	2r	.	.	.	.	.
4B/	.	.	.	.	.	.	.	.	.	.	.
4A/	.	.	.	.	.	2.A/	mi-	.	1g	.	.
4G/	.	.	.	.	.	.	.	.	.	.	.
1A	.	.	.	.	.	.	.	.	.	.	.
.	.	.	.	.	.	4B/	.	.	.	.	.
.	.	.	.	.	.	4c/	.	.	2f/	.	.
.	.	.	.	.	.	4A/	.	.	.	.	.
=47	=47	=47	=47	=47	=47	=47	=47	=47	=47	=47	=47
*lig	*	*	*	*	*	*	*	*	*	*	*
1G	.	.	1B	-hi	.	2d\	-hi	.	1g	.	.
.	.	.	.	.	.	2.G/	.	.	.	.	.
1C	.	.	1c	.	.	.	.	.	2r	.	.
.	.	.	.	.	.	4F/	mag-	.	.	.	.
.	.	.	.	.	.	4G/	.	.	1g\	mi-	.
.	.	.	.	.	.	4A/	.	.	.	.	.
*Xlig	*	*	*	*	*	*	*	*	*	*	*
=48	=48	=48	=48	=48	=48	=48	=48	=48	=48	=48	=48
*lig	*	*	*	*	*	*	*	*	*	*	*
1G	.	.	0d	.	.	1B	.	.	.	.	.
.	.	.	.	.	.	.	.	.	2g/	-hi	.
1D	.	.	.	.	.	2A/	-na	.	1f	ma-	.
.	.	.	.	.	.	2.d/	.	.	.	.	.
*Xlig	*	*	*Xlig	*	*	*	*	*	*	*	*
=49	=49	=49	=49	=49	=49	=49	=49	=49	=49	=49	=49
*lig	*	*	*	*	*	*	*	*	*	*	*
1G	.	.	1d	ma-	.	.	.	.	0g	-gna	.
.	.	.	.	.	.	4c/	.	.	.	.	.
.	.	.	.	.	.	4B/	.	.	.	.	.
.	.	.	.	.	.	4A/	.	.	.	.	.
1E	.	.	1.c	-gna	.	2G/	.	.	.	.	.
.	.	.	.	.	.	2g\	.	.	.	.	.
*Xlig	*	*	*	*	*	*	*	*	*	*	*
=50	=50	=50	=50	=50	=50	=50	=50	=50	=50	=50	=50
*lig	*	*	*	*	*	*	*	*	*	*	*
1F	.	.	.	.	.	2.f\	.	.	1a	qui	.
.	.	.	4B/	.	.	.	.	.	.	.	.
.	.	.	4A/	.	.	4e\	qui	.	.	.	.
1G	.	.	1B	.	.	2d/	po-	.	1g	.	.
.	.	.	.	.	.	1g\	.	.	.	.	.
*Xlig	*	*	*	*	*	*	*	*	*	*	*
=51	=51	=51	=51	=51	=51	=51	=51	=51	=51	=51	=51
!	!	!	!LO:SIC:v:t=custos d	!	!	!	!	!	!	!	!
1A	.	.	1c	.	.	.	.	.	1cc	po-	.
!	!	!	!LO:LB:g=original	!	!	!LO:SIC:v:t=custos g	!	!	!	!	!
.	.	.	.	.	.	2f\	.	.	.	.	.
!	!	!	!	!	!	!LO:LB:g=original	!	!	!	!	!
2G/	.	.	1.d	qui	.	2g\	-tens	.	2b\	-tens	.
1F/	.	.	.	.	.	2a\	.	.	2.a\	.	.
=52	=52	=52	=52	=52	=52	=52	=52	=52	=52	=52	=52
.	.	.	.	.	.	4A/	.	.	.	.	.
.	.	.	.	.	.	4B/	eſt	.	4g/	eſt	.
2E/	.	.	2c\	.	.	1c	.	.	2e/	.	.
1D	.	.	1d	.	.	.	.	.	1f	.	.
.	.	.	.	.	.	2B/	.	.	.	.	.
=53	=53	=53	=53	=53	=53	=53	=53	=53	=53	=53	=53
1C	.	.	0e	po-	.	4c/	.	.	4e/	.	.
.	.	.	.	.	.	4d/	.	.	4f/	.	.
.	.	.	.	.	.	4e\	.	.	4g/	.	.
.	.	.	.	.	.	4f\	.	.	4a/	.	.
2r	.	.	.	.	.	1g	.	.	2b/	.	.
2C/	qui	.	.	.	.	.	.	.	1cc\	.	.
=54	=54	=54	=54	=54	=54	=54	=54	=54	=54	=54	=54
*	*	*	*lig	*	*	*	*	*	*	*	*
1G	po-	.	1d	-tens	.	2r	.	.	.	.	.
.	.	.	.	.	.	2g\	et	.	2b\	.	.
1A	-tens	.	1c	.	.	2f\	JE-	.	2cc\	.	.
.	.	.	.	.	.	2e\	-SU	.	2ee\	.	.
!	!	!	!	!	!	!	!	!	!LO:SIC:v:t=custos dd	!	!
*	*	*	*Xlig	*	*	*	*	*	*	*	*
!	!	!	!	!	!	!	!	!	!LO:LB:g=original	!	!
=55	=55	=55	=55	=55	=55	=55	=55	=55	=55	=55	=55
1F	eſt	.	0d	.	.	2f\	.	.	2dd\	.	.
.	.	.	.	.	.	2a\	no-	.	1cc	.	.
1G	.	.	.	.	.	1g	-m(en)	.	.	.	.
.	.	.	.	.	.	.	.	.	2b\	.	.
=56	=56	=56	=56	=56	=56	=56	=56	=56	=56	=56	=56
1A	.	.	0c	eſt	.	1.e	e-	.	1cc	.	.
2r	.	.	.	.	.	.	.	.	2r	.	.
2A/	et	.	.	.	.	2e\	-ius	.	2cc\	et	.
=57	=57	=57	=57	=57	=57	=57	=57	=57	=57	=57	=57
2.A/	ſan-	.	0r	.	.	2f\	.	.	2cc\	ſan-	.
.	.	.	.	.	.	2e\	.	.	2cc\	-ctu(m)	.
4G/	.	.	.	.	.	.	.	.	.	.	.
2F/	-ctu(m)	.	.	.	.	2f\	.	.	2a\	.	.
2E/	no-	.	.	.	.	2g\	.	.	2cc\	no-	.
=58	=58	=58	=58	=58	=58	=58	=58	=58	=58	=58	=58
2F/	-m(en)	.	0r	.	.	2a\	.	.	1dd	-m(en)	.
!LO:SIC:v:t=custos A	!	!	!	!	!	!	!	!	!	!	!
2G/	e-	.	.	.	.	1g	.	.	.	.	.
!LO:LB:g=original	!	!	!	!	!	!	!	!	!	!	!
1A	-ius	.	.	.	.	.	.	.	0cc	e-	.
.	.	.	.	.	.	2f\	eius	.	.	.	.
=59	=59	=59	=59	=59	=59	=59	=59	=59	=59	=59	=59
0r	.	.	0c	et	.	1g	.	.	.	-ius	.
.	.	.	.	.	.	2r	.	.	1r	.	.
*	*	*	*	*	*	*	*ij	*	*	*	*
.	.	.	.	.	.	1g\	et	.	.	.	.
=60	=60	=60	=60	=60	=60	=60	=60	=60	=60	=60	=60
*	*	*	*	*	*	*	*	*	*	*ij	*
0r	.	.	0c	ſan-	.	.	.	.	1.g	et	.
.	.	.	.	.	.	2f\	san-	.	.	.	.
.	.	.	.	.	.	2e\	.	.	.	.	.
.	.	.	.	.	.	2d\	-ctum	.	2f/	san-	.
=61	=61	=61	=61	=61	=61	=61	=61	=61	=61	=61	=61
0C	et	.	0c	-ctu(m)	.	2c/	no-	.	2e/	-ctum	.
!	!	!	!	!	!	!LO:SIC:v:t=custos A	!	!	!	!	!
.	.	.	.	.	.	2B/	.	.	2d/	no-	.
!	!	!	!	!	!	!LO:LB:g=original	!	!	!	!	!
.	.	.	.	.	.	2A/	-men	.	1c	-men	.
.	.	.	.	.	.	2G/	.	.	.	.	.
=62	=62	=62	=62	=62	=62	=62	=62	=62	=62	=62	=62
0D	ſan-	.	0A	no-	.	2.F/	e-	.	1.f	e-	.
.	.	.	.	.	.	4E/	.	.	.	.	.
.	.	.	.	.	.	1F	-ius	.	.	.	.
.	.	.	.	.	.	.	.	.	4e/	.	.
.	.	.	.	.	.	.	.	.	4d/	.	.
*	*	*	*	*	*	*	*Xij	*	*	*	*
=63	=63	=63	=63	=63	=63	=63	=63	=63	=63	=63	=63
*lig	*	*	*	*	*	*	*	*	*	*	*
1C	-ctu(m)	.	0c	-m(en)	.	1G	.	.	0e	-ius	.
1.c	.	.	.	.	.	1r	.	.	.	.	.
*Xlig	*	*	*	*	*	*	*	*	*	*Xij	*
=64	=64	=64	=64	=64	=64	=64	=64	=64	=64	=64	=64
.	.	.	0d	.	.	0r	.	.	1r	.	.
4B/	no-	.	.	.	.	.	.	.	.	.	.
4A/	.	.	.	.	.	.	.	.	.	.	.
1B	-m(en)	.	.	.	.	.	.	.	2r	.	.
.	.	.	.	.	.	.	.	.	2.g/	no-	.
=65	=65	=65	=65	=65	=65	=65	=65	=65	=65	=65	=65
1c	e-	.	0.c	e-	.	2r	.	.	.	.	.
.	.	.	.	.	.	.	.	.	4f/	.	.
.	.	.	.	.	.	1g	.	.	4e/	-men	.
.	.	.	.	.	.	.	.	.	4d/	.	.
1A	.	.	.	.	.	.	.	.	1c	.	.
.	.	.	.	.	.	2f\	et	.	.	.	.
=66	=66	=66	=66	=66	=66	=66	=66	=66	=66	=66	=66
1G	-ius	.	.	.	.	2e\	.	.	2.g/	.	.
.	.	.	.	.	.	2d\	ſanc-	.	.	.	.
.	.	.	.	.	.	.	.	.	4f/	e-	.
2r	.	.	1.c	-ius	.	2.c/	.	.	2.e/	-ius	.
2C/	et	.	.	.	.	.	.	.	.	.	.
.	.	.	.	.	.	4B/	.	.	4d/	.	.
=67	=67	=67	=67	=67	=67	=67	=67	=67	=67	=67	=67
2F/	ſan-	.	.	.	.	2A/	-tum	.	1c	.	.
*	*	*	*	*ij	*	*	*	*	*	*	*
2E/	.	.	1.c	no-	.	2G/	.	.	.	.	.
2.A/	-ctu(m)	.	.	.	.	2.c/	.	.	1r	.	.
4G/	.	.	.	.	.	4B/	no-	.	.	.	.
=68	=68	=68	=68	=68	=68	=68	=68	=68	=68	=68	=68
2F/	no-	.	1.c	-men	.	2A/	-men	.	2.cc\	no-	.
2E/	-m(en)	.	.	.	.	2G/	.	.	.	.	.
!	!	!	!	!	!	!	!	!	!LO:SIC:v:t=custos a	!	!
.	.	.	.	.	.	.	.	.	4b\	.	.
*lig	*	*	*	*	*	*	*	*	*	*	*
!	!	!	!	!	!	!	!	!	!LO:LB:g=original	!	!
1F	e-	.	.	.	.	1A	.	.	2a/	.	.
.	.	.	1.A\	e-	.	.	.	.	2g/	.	.
=69	=69	=69	=69	=69	=69	=69	=69	=69	=69	=69	=69
1D	.	.	.	.	.	1d	.	.	1f	.	.
*Xlig	*	*	*	*	*	*	*	*	*	*	*
2C/	-ius	.	1.c	.	.	2G/	.	.	2e/	-men	.
2F/	.	.	.	.	.	2F/	.	.	2a/	.	.
=70	=70	=70	=70	=70	=70	=70	=70	=70	=70	=70	=70
2E/	.	.	.	.	.	2G/	.	.	2g/	.	.
2D/	.	.	1.d	-ius	.	1A	e-	.	2f/	.	.
*	*	*	*	*Xij	*	*	*	*	*	*	*
2F/	.	.	.	.	.	.	.	.	2a\	.	.
2G/	.	.	.	.	.	2G/	-ius	.	2b\	.	.
=71	=71	=71	=71	=71	=71	=71	=71	=71	=71	=71	=71
2.A/	.	.	00c	.	.	2r	.	.	2.cc\	.	.
.	.	.	.	.	.	1F	.	.	.	.	.
4G/	.	.	.	.	.	.	.	.	4b\	e-	.
2F/	.	.	.	.	.	.	.	.	2a\	-ius	.
2E/	.	.	.	.	.	2G/	e-	.	2g/	.	.
=72	=72	=72	=72	=72	=72	=72	=72	=72	=72	=72	=72
1F	.	.	.	.	.	2A/	.	.	1f	.	.
.	.	.	.	.	.	2F/	-ius	.	.	.	.
!LO:SIC:v:t=custos c	!	!	!	!	!	!LO:SIC:v:t=custos c	!	!	!	!	!
1C	.	.	.	.	.	1G	.	.	1e	.	.
!LO:LB:g=original	!	!	!	!	!	!LO:LB:g=original	!	!	!	!	!
=73||	=73||	=73||	=73||	=73||	=73||	=73||	=73||	=73||	=73||	=73||	=73||
*M3/1	*	*	*M3/1	*	*	*M3/1	*	*	*M3/1	*	*
*met(0)	*	*	*met(0)	*	*	*met(0)	*	*	*met(0)	*	*
*	*	*	*	*	*	*lig	*	*	*	*	*
0.r	.	.	0.r	.	.	1c	Fe-	.	0.r	.	.
.	.	.	.	.	.	1d	.	.	.	.	.
*	*	*	*	*	*	*Xlig	*	*	*	*	*
.	.	.	.	.	.	2c/	-cit	.	.	.	.
.	.	.	.	.	.	1f\	.	.	.	.	.
=74	=74	=74	=74	=74	=74	=74	=74	=74	=74	=74	=74
1r	.	.	0.r	.	.	.	.	.	1g	Fe-	.
.	.	.	.	.	.	2e\	po-	.	.	.	.
1r	.	.	.	.	.	1f	-ten-	.	1a	-cit	.
*lig	*	*	*	*	*	*	*	*	*	*	*
1c	Fe-	.	.	.	.	2.e\	-ti-	.	2g/	po-	.
.	.	.	.	.	.	.	.	.	1cc\	-ten-	.
.	.	.	.	.	.	4f\	-am	.	.	.	.
=75	=75	=75	=75	=75	=75	=75	=75	=75	=75	=75	=75
1d	.	.	1G	Fe-	.	1g	.	.	.	.	.
.	.	.	.	.	.	.	.	.	2b\	-ti-	.
*Xlig	*	*	*	*	*	*	*	*	*	*	*
1c	-cit	.	1A	-cit	.	1r	.	.	1cc	-a(m)	.
*lig	*	*	*	*	*	*	*ij	*	*	*	*
!	!	!	!LO:SIC:v:t=custos c	!	!	!	!	!	!	!	!
1C	fe-	.	2G/	po-	.	2r	.	.	1r	.	.
.	.	.	1c\	-ten-	.	1G/	fe-	.	.	.	.
!	!	!	!LO:LB:g=original	!	!	!	!	!	!	!	!
=76	=76	=76	=76	=76	=76	=76	=76	=76	=76	=76	=76
1D	.	.	.	.	.	.	.	.	0r	.	.
.	.	.	2B/	-ti-	.	2F/	.	.	.	.	.
*Xlig	*	*	*	*	*	*	*	*	*	*	*
1C	-cit	.	0c	-a(m)	.	2G/	.	.	.	.	.
.	.	.	.	.	.	2.c/	-cit	.	.	.	.
1.F	po-	.	.	.	.	.	.	.	1.a	po-	.
.	.	.	.	.	.	4B/	po-	.	.	.	.
.	.	.	.	.	.	4A/	.	.	.	.	.
.	.	.	.	.	.	4G/	.	.	.	.	.
=77	=77	=77	=77	=77	=77	=77	=77	=77	=77	=77	=77
.	.	.	1r	.	.	2A/	.	.	.	.	.
2E/	.	.	.	.	.	1c	.	.	2g/	-ten-	.
2F/	-ten-	.	1r	.	.	.	.	.	2a\	-ti-	.
2G/	-ti-	.	.	.	.	2B/	-ten-	.	2b\	-a(m)	.
!	!	!	!	!	!	!	!	!	!LO:SIC:v:t=custos dd	!	!
2E/	-a(m)	.	1r	.	.	2G/	-ti-	.	2cc\	.	.
!	!	!	!	!	!	!	!	!	!LO:LB:g=original	!	!
2D/	.	.	.	.	.	2A/	-am	.	1dd\	.	.
*	*	*	*	*	*	*	*Xij	*	*	*	*
=78	=78	=78	=78	=78	=78	=78	=78	=78	=78	=78	=78
1.A	.	.	1.e	po-	.	2r	.	.	.	.	.
.	.	.	.	.	.	1a	po-	.	4cc\	.	.
.	.	.	.	.	.	.	.	.	4b\	.	.
.	.	.	.	.	.	.	.	.	2cc\	.	.
2B\	.	.	2d\	-ten-	.	2.g\	.	.	2dd\	.	.
2c\	.	.	2e\	-ti-	.	.	.	.	2g/	.	.
.	.	.	.	.	.	4e\	-ten-	.	.	.	.
2F/	.	.	2f\	-a(m)	.	2a\	-ti-	.	2a/	.	.
=79	=79	=79	=79	=79	=79	=79	=79	=79	=79	=79	=79
2G/	.	.	2d\	.	.	2g\	-am	.	2b/	.	.
2A/	.	.	1c	.	.	1e	.	.	2cc/	.	.
1F	.	.	.	.	.	.	.	.	1a	.	.
.	.	.	4B/	.	.	2d/	.	.	.	.	.
.	.	.	4A/	.	.	.	.	.	.	.	.
2E/	.	.	4B\	.	.	2e/	.	.	2g/	.	.
.	.	.	4c\	.	.	.	.	.	.	.	.
2F/	.	.	1d\	.	.	2a\	.	.	2f/	.	.
=80	=80	=80	=80	=80	=80	=80	=80	=80	=80	=80	=80
2G/	.	.	.	.	.	2g\	.	.	2e/	.	.
!	!	!	!	!	!	!LO:SIC:v:t=custos g	!	!	!	!	!
2A/	.	.	1c	.	.	2f\	.	.	4d/	.	.
.	.	.	.	.	.	.	.	.	4c/	.	.
!	!	!	!	!	!	!LO:LB:g=original	!	!	!	!	!
1G	.	.	.	.	.	2.g\	.	.	1d	.	.
.	.	.	2B/	.	.	.	.	.	.	.	.
.	.	.	.	.	.	4f\	.	.	.	.	.
*	*	*	*lig	*	*	*	*	*	*	*	*
1r	.	.	1c	.	.	2e/	.	.	2c/	.	.
.	.	.	.	.	.	4d/	.	.	1cc\	.	.
.	.	.	.	.	.	4c/	.	.	.	.	.
=81	=81	=81	=81	=81	=81	=81	=81	=81	=81	=81	=81
1r	.	.	1G	.	.	1d	.	.	.	.	.
.	.	.	.	.	.	.	.	.	2b\	in	.
*	*	*	*Xlig	*	*	*	*	*	*	*	*
2r	.	.	1r	.	.	1c	.	.	2.cc\	bra-	.
*lig	*	*	*	*	*	*	*	*	*	*	*
1C	in	.	.	.	.	.	.	.	.	.	.
.	.	.	.	.	.	.	.	.	4b\	-chi-	.
.	.	.	1r	.	.	2r	.	.	2g/	-o	.
1F/	.	.	.	.	.	2c/	in	.	1a\	.	.
*Xlig	*	*	*	*	*	*	*	*	*	*	*
=82	=82	=82	=82	=82	=82	=82	=82	=82	=82	=82	=82
.	.	.	2r	.	.	2d/	.	.	.	.	.
*	*	*	*lig	*	*	*	*	*	*	*	*
1E	bra-	.	1G	in	.	4e\	bra-	.	1g	ſu-	.
.	.	.	.	.	.	4f\	-chi-	.	.	.	.
.	.	.	.	.	.	4g\	-o	.	.	.	.
.	.	.	.	.	.	4e\	.	.	.	.	.
2F/	-chi-	.	1c	.	.	2a\	.	.	4f/	-o	.
.	.	.	.	.	.	.	.	.	4e/	.	.
1G	-o	.	.	.	.	2.g\	ſu-	.	1d	.	.
!LO:SIC:v:t=custos A	!	!	!	!	!	!	!	!	!	!	!
*	*	*	*Xlig	*	*	*	*	*	*	*	*
.	.	.	2B/	bra-	.	.	.	.	.	.	.
.	.	.	.	.	.	4f/	-o	.	.	.	.
!LO:LB:g=original	!	!	!	!	!	!	!	!	!	!	!
=83	=83	=83	=83	=83	=83	=83	=83	=83	=83	=83	=83
1.A	ſu-	.	2.c\	-chi-	.	4e/	.	.	2r	.	.
.	.	.	.	.	.	4d/	.	.	.	.	.
.	.	.	.	.	.	4c/	.	.	2.c/	.	.
.	.	.	4d\	-o	.	4B/	.	.	.	.	.
.	.	.	0e	ſu-	.	1A	.	.	.	.	.
.	.	.	.	.	.	.	.	.	4d/	.	.
4G/	-o	.	.	.	.	.	.	.	4e/	.	.
!	!	!	!	!	!	!	!	!	!LO:SIC:v:t=custos g	!	!
4F/	.	.	.	.	.	.	.	.	4f/	.	.
!	!	!	!	!	!	!	!	!	!LO:LB:g=original	!	!
2.E/	.	.	.	.	.	1B	.	.	4g/	.	.
.	.	.	.	.	.	.	.	.	4f/	.	.
.	.	.	.	.	.	.	.	.	4g/	.	.
4F/	.	.	.	.	.	.	.	.	4a/	.	.
=84	=84	=84	=84	=84	=84	=84	=84	=84	=84	=84	=84
1G	.	.	1d	-o	.	2r	.	.	1b	.	.
.	.	.	.	.	.	2g\	.	.	.	.	.
2D/	.	.	2r	.	.	2a\	ſu-	.	0r	.	.
2G/	.	.	2G/	in	.	2g\	-o	.	.	.	.
2F/	.	.	2c\	bra-	.	2a\	.	.	.	.	.
2G/	.	.	2B\	-chi-	.	2g\	.	.	.	.	.
=85	=85	=85	=85	=85	=85	=85	=85	=85	=85	=85	=85
2A/	.	.	2c\	-o	.	2r	.	.	1r	.	.
!	!	!	!LO:SIC:v:t=custos e	!	!	!	!	!	!	!	!
2B\	.	.	2d\	.	.	4g\	.	.	.	.	.
.	.	.	.	.	.	4f\	.	.	.	.	.
!	!	!	!LO:LB:g=original	!	!	!	!	!	!	!	!
2c\	.	.	1e	ſu-	.	4e\	ſu-	.	1ee	.	.
.	.	.	.	.	.	4d\	-o	.	.	.	.
2C/	.	.	.	.	.	4c/	.	.	.	.	.
.	.	.	.	.	.	4B/	.	.	.	.	.
2D/	.	.	2f\	.	.	2A/	.	.	2dd\	.	.
!	!	!	!	!	!	!LO:SIC:v:t=custos A	!	!	!	!	!
2E/	.	.	2e\	.	.	2G/	.	.	1cc\	.	.
!	!	!	!	!	!	!LO:LB:g=original	!	!	!	!	!
=86	=86	=86	=86	=86	=86	=86	=86	=86	=86	=86	=86
2F/	.	.	1d	.	.	2A/	.	.	.	.	.
2G/	.	.	.	.	.	2B/	.	.	2b\	.	.
1C	.	.	1c	-o	.	1G	.	.	1cc	.	.
2r	.	.	2r	.	.	2r	.	.	2r	.	.
2C/	diſ-	.	2e\	diſ-	.	2g\	diſ-	.	2cc\	diſ-	.
=87	=87	=87	=87	=87	=87	=87	=87	=87	=87	=87	=87
2C/	-per-	.	2e\	-perr-	.	2g\	-p(er)-	.	2cc\	-per-	.
2C/	-sit	.	2e\	-ſit	.	2g\	-ſit	.	2cc\	-ſit	.
2F/	ſu-	.	2f\	.	.	2a\	.	.	2cc\	ſu-	.
2F/	-per-	.	2f\	ſu-	.	2a\	ſu-	.	2cc\	-per-	.
1C	-bos	.	2.e\	-p(er)-	.	2g\	-p(er)-	.	1cc	-bos	.
.	.	.	.	.	.	2g\	-bos	.	.	.	.
.	.	.	4d\	-bos	.	.	.	.	.	.	.
=88	=88	=88	=88	=88	=88	=88	=88	=88	=88	=88	=88
2r	.	.	2B\	.	.	2g\	me(n)-	.	2r	.	.
2C/	men-	.	2c/	men-	.	2e\	-te	.	2g/	men-	.
2C/	-te	.	2c/	-te	.	2g\	cor-	.	2e/	-te	.
2F/	.	.	2A/	cor-	.	2a\	-dis	.	2f/	.	.
2E/	cor-	.	1c	-dis	.	0.g	ſu-	.	4g/	cor-	.
.	.	.	.	.	.	.	.	.	4c/	-diſ	.
2C/	-dis	.	.	.	.	.	.	.	1cc\	.	.
=89	=89	=89	=89	=89	=89	=89	=89	=89	=89	=89	=89
1G	ſu-	.	1d	ſu-	.	.	.	.	.	.	.
.	.	.	.	.	.	.	.	.	2b\	ſu-	.
1C	-i	.	1c	-i	.	.	.	.	1cc	-i	.
2r	.	.	2r	.	.	00.g	-i	.	2r	.	.
!LO:SIC:v:t=custos C	!	!	!	!	!	!	!	!	!	!	!
*	*ij	*	*	*	*	*	*	*	*	*ij	*
2C/	men-	.	2c/	men-	.	.	.	.	2g/	men-	.
!LO:LB:g=original	!	!	!	!	!	!	!	!	!	!	!
=90	=90	=90	=90	=90	=90	=90	=90	=90	=90	=90	=90
2C/	-te	.	2c/	.	.	.	.	.	2e/	-te	.
2F/	cor-	.	2A/	-te	.	.	.	.	2f/	cor-	.
2E/	-dis	.	1c	cor-	.	.	.	.	4g/	-dis	.
!	!	!	!	!	!	!	!	!	!LO:SIC:v:t=custos cc	!	!
.	.	.	.	.	.	.	.	.	4c/	.	.
!	!	!	!	!	!	!	!	!	!LO:LB:g=original	!	!
2C/	.	.	.	.	.	.	.	.	1cc	su-	.
1G	su-	.	1d	-dis	.	.	.	.	.	.	.
.	.	.	.	.	.	.	.	.	2b\	.	.
=91	=91	=91	=91	=91	=91	=91	=91	=91	=91	=91	=91
0C	-i	.	0c	ſui	.	.	.	.	0cc	-i	.
1ryy	.	.	1ryy	.	.	1ryy	.	.	1ryy	.	.
*	*Xij	*	*	*	*	*	*	*	*	*Xij	*
=92||	=92||	=92||	=92||	=92||	=92||	=92||	=92||	=92||	=92||	=92||	=92||
*M2/1	*	*	*M2/1	*	*	*M2/1	*	*	*M2/1	*	*
*met(c|)	*	*	*met(c|)	*	*	*met(c|)	*	*	*met(c|)	*	*
!	!	!	!	!	!	!	!	!	!LO:TX:a:B:t=Esurientes\npausant.	!	!
0r	.	.	1r	.	.	1c	E-	.	0ryy	.	.
.	.	.	1G	E-	.	1d	-ſu-	.	.	.	.
=93	=93	=93	=93	=93	=93	=93	=93	=93	=93	=93	=93
!	!	!	!LO:SIC:v:t=custos G	!	!	!	!	!	!	!	!
0r	.	.	1A	-ſu-	.	2.c/	-ri-	.	0ryy	.	.
.	.	.	.	.	.	4d/	-en-	.	.	.	.
!	!	!	!LO:LB:g=original	!	!	!	!	!	!	!	!
.	.	.	2.G/	-ri-	.	4e\	.	.	.	.	.
.	.	.	.	.	.	4f\	.	.	.	.	.
.	.	.	.	.	.	1g\	-tes	.	.	.	.
.	.	.	4A/	-en-	.	.	.	.	.	.	.
=94	=94	=94	=94	=94	=94	=94	=94	=94	=94	=94	=94
0r	.	.	4B/	-tes	.	.	.	.	0ryy	.	.
.	.	.	4c/	.	.	.	.	.	.	.	.
.	.	.	1d	.	.	2f\	.	.	.	.	.
.	.	.	.	.	.	2.e\	.	.	.	.	.
.	.	.	1c\	.	.	.	.	.	.	.	.
.	.	.	.	.	.	8d/	.	.	.	.	.
.	.	.	.	.	.	8c/	.	.	.	.	.
=95	=95	=95	=95	=95	=95	=95	=95	=95	=95	=95	=95
1r	.	.	.	.	.	1d	.	.	0ryy	.	.
.	.	.	2B/	.	.	.	.	.	.	.	.
2r	.	.	0c	.	.	2c/	.	.	.	.	.
!	!	!	!	!	!	!LO:SIC:v:t=custos a	!	!	!	!	!
2C/	Im-	.	.	.	.	2g\	.	.	.	.	.
!	!	!	!	!	!	!LO:LB:g=original	!	!	!	!	!
=96	=96	=96	=96	=96	=96	=96	=96	=96	=96	=96	=96
2F/	-ple-	.	.	.	.	2a\	.	.	0ryy	.	.
2G/	-vit	.	.	.	.	1g	.	.	.	.	.
1A	.	.	2r	.	.	.	.	.	.	.	.
.	.	.	1c\	im-	.	2f\	.	.	.	.	.
=97	=97	=97	=97	=97	=97	=97	=97	=97	=97	=97	=97
*	*	*	*	*	*	*lig	*	*	*	*	*
2.G/	bo-	.	.	.	.	1g	.	.	0ryy	.	.
.	.	.	2B\	-ple-	.	.	.	.	.	.	.
4F/	.	.	.	.	.	.	.	.	.	.	.
*	*	*	*lig	*	*	*	*	*	*	*	*
1E	-nis	.	1c	-vit	.	1G	.	.	.	.	.
*	*	*	*	*	*	*Xlig	*	*	*	*	*
=98	=98	=98	=98	=98	=98	=98	=98	=98	=98	=98	=98
1D	.	.	1d	.	.	1A	.	.	0ryy	.	.
*	*	*	*Xlig	*	*	*	*	*	*	*	*
1r	.	.	1d	.	.	2r	.	.	.	.	.
.	.	.	.	.	.	2G/	im-	.	.	.	.
=99	=99	=99	=99	=99	=99	=99	=99	=99	=99	=99	=99
0r	.	.	2r	.	.	2c/	-ple-	.	0ryy	.	.
.	.	.	2G/	im-	.	2d/	-vit	.	.	.	.
.	.	.	2c\	-ple-	.	2e/	.	.	.	.	.
.	.	.	2d\	-vit	.	1d\	.	.	.	.	.
=100	=100	=100	=100	=100	=100	=100	=100	=100	=100	=100	=100
2r	.	.	1e	bo-	.	.	.	.	0ryy	.	.
*	*ij	*	*	*	*	*	*	*	*	*	*
2C/	im-	.	.	.	.	1c	bo-	.	.	.	.
2F/	-ple-	.	1d	-nis	.	.	.	.	.	.	.
2G/	-vit	.	.	.	.	2B/	-nis	.	.	.	.
=101	=101	=101	=101	=101	=101	=101	=101	=101	=101	=101	=101
*	*	*	*	*ij	*	*lig	*	*	*	*	*
1A	bo-	.	1r	.	.	1c	.	.	0ryy	.	.
1G	-nis	.	2r	.	.	1d	.	.	.	.	.
.	.	.	1G/	im-	.	.	.	.	.	.	.
*	*	*	*	*	*	*Xlig	*	*	*	*	*
=102	=102	=102	=102	=102	=102	=102	=102	=102	=102	=102	=102
2r	.	.	.	.	.	1e	.	.	0ryy	.	.
2C/	im-	.	2c\	-ple-	.	.	.	.	.	.	.
2F/	-ple-	.	2d\	-vit	.	2A/	.	.	.	.	.
2G/	-vit	.	1e\	bo-	.	2B/	.	.	.	.	.
=103	=103	=103	=103	=103	=103	=103	=103	=103	=103	=103	=103
*lig	*	*	*	*	*	*	*	*	*	*	*
1A	bo-	.	.	.	.	1c	.	.	0ryy	.	.
.	.	.	2c\	.	.	.	.	.	.	.	.
1G	.	.	2d\	.	.	1B	.	.	.	.	.
.	.	.	1e\	.	.	.	.	.	.	.	.
*Xlig	*	*	*	*	*	*	*	*	*	*	*
=104	=104	=104	=104	=104	=104	=104	=104	=104	=104	=104	=104
1C	-nis	.	.	.	.	1r	.	.	0ryy	.	.
*	*Xij	*	*	*	*	*	*	*	*	*	*
.	.	.	4d\	.	.	.	.	.	.	.	.
.	.	.	4c\	.	.	.	.	.	.	.	.
1r	.	.	2B/	.	.	2r	.	.	.	.	.
.	.	.	2c\	-nis	.	2e\	im-	.	.	.	.
*	*	*	*	*Xij	*	*	*	*	*	*	*
=105	=105	=105	=105	=105	=105	=105	=105	=105	=105	=105	=105
2r	.	.	2B\	.	.	2d\	-ple-	.	0ryy	.	.
2C/	im-	.	2c\	.	.	2e\	-vit	.	.	.	.
!	!	!	!LO:SIC:v:t=custos d	!	!	!	!	!	!	!	!
2.F/	-ple-	.	2A/	.	.	1f	.	.	.	.	.
!	!	!	!LO:LB:g=original	!	!	!	!	!	!	!	!
.	.	.	2d\	.	.	.	.	.	.	.	.
!LO:SIC:v:t=custos A	!	!	!	!	!	!	!	!	!	!	!
4D/	-vit	.	.	.	.	.	.	.	.	.	.
!LO:LB:g=original	!	!	!	!	!	!	!	!	!	!	!
=106	=106	=106	=106	=106	=106	=106	=106	=106	=106	=106	=106
2A/	bo-	.	2c\	.	.	2e\	bo-	.	0ryy	.	.
2D/	.	.	2d\	.	.	2f\	-nis	.	.	.	.
2.E/	.	.	2B/	.	.	2e\	.	.	.	.	.
.	.	.	2e\	.	.	2c/	.	.	.	.	.
4C/	.	.	.	.	.	.	.	.	.	.	.
=107	=107	=107	=107	=107	=107	=107	=107	=107	=107	=107	=107
2G/	.	.	2d\	im-	.	2B/	.	.	0ryy	.	.
2C/	.	.	2e\	-ple-	.	2c/	.	.	.	.	.
2.F/	.	.	2c\	-vit	.	2.A/	.	.	.	.	.
.	.	.	2f\	.	.	.	.	.	.	.	.
4D/	.	.	.	.	.	4B/	.	.	.	.	.
=108	=108	=108	=108	=108	=108	=108	=108	=108	=108	=108	=108
!	!	!	!	!	!	!LO:SIC:v:t=custos d	!	!	!	!	!
2E/	.	.	2e\	.	.	2c/	.	.	0ryy	.	.
!	!	!	!	!	!	!LO:LB:g=original	!	!	!	!	!
1D	.	.	1f	bo-	.	1d	.	.	.	.	.
2E/	.	.	1e\	-nis	.	2c/	.	.	.	.	.
=109	=109	=109	=109	=109	=109	=109	=109	=109	=109	=109	=109
2F/	-nis	.	.	.	.	2c/	.	.	0ryy	.	.
2G/	.	.	2d\	.	.	2B/	.	.	.	.	.
1C	.	.	1e	.	.	1c	.	.	.	.	.
=110	=110	=110	=110	=110	=110	=110	=110	=110	=110	=110	=110
2r	.	.	2r	.	.	2r	.	.	0ryy	.	.
2C/	et	.	2e\	et	.	2c/	et	.	.	.	.
2C/	di-	.	2e\	di-	.	2c/	di-	.	.	.	.
2C/	-vi-	.	2e\	-vi-	.	2c/	-vi-	.	.	.	.
=111	=111	=111	=111	=111	=111	=111	=111	=111	=111	=111	=111
2.C/	-tes	.	1e	-tes	.	1c	-tes	.	0ryy	.	.
4D/	.	.	.	.	.	.	.	.	.	.	.
2E/	.	.	1r	.	.	2r	.	.	.	.	.
2.F/	.	.	.	.	.	2c/	di-	.	.	.	.
=112	=112	=112	=112	=112	=112	=112	=112	=112	=112	=112	=112
.	.	.	2r	.	.	2c/	-mi-	.	0ryy	.	.
4E/	.	.	.	.	.	.	.	.	.	.	.
4F/	.	.	2.c\	.	.	2A/	-ſit	.	.	.	.
4G/	.	.	.	.	.	.	.	.	.	.	.
4A/	.	.	.	.	.	1c	i-	.	.	.	.
4B/	.	.	4B/	di-	.	.	.	.	.	.	.
1c\	.	.	2A/	-mi-	.	.	.	.	.	.	.
=113	=113	=113	=113	=113	=113	=113	=113	=113	=113	=113	=113
.	.	.	1G	-ſit	.	1d	-na-	.	0ryy	.	.
2B\	di-	.	.	.	.	.	.	.	.	.	.
2c\	-mi-	.	2A/	.	.	1c	-nes	.	.	.	.
2A/	-ſit	.	2c\	i-	.	.	.	.	.	.	.
=114	=114	=114	=114	=114	=114	=114	=114	=114	=114	=114	=114
2G/	.	.	2B\	-na-	.	2r	.	.	0ryy	.	.
*	*	*	*	*	*	*	*ij	*	*	*	*
1F	.	.	1A	.	.	2c/	et	.	.	.	.
.	.	.	.	.	.	2d/	di-	.	.	.	.
2E/	ma-	.	1G/	.	.	2e/	-vi-	.	.	.	.
=115	=115	=115	=115	=115	=115	=115	=115	=115	=115	=115	=115
!LO:SIC:v:t=custos C	!	!	!	!	!	!	!	!	!	!	!
1D	.	.	.	.	.	2.f\	-tis	.	0ryy	.	.
.	.	.	2F/	.	.	.	.	.	.	.	.
.	.	.	.	.	.	4d/	di-	.	.	.	.
*	*	*	*lig	*	*	*	*	*	*	*	*
2C/	.	.	1G	-nes	.	4e\	-mi-	.	.	.	.
.	.	.	.	.	.	4f\	-sit	.	.	.	.
2BB/	-nes	.	.	.	.	1g\	i-	.	.	.	.
=116	=116	=116	=116	=116	=116	=116	=116	=116	=116	=116	=116
2C/	.	.	1A	.	.	.	.	.	0ryy	.	.
2D/	.	.	.	.	.	2f\	-na-	.	.	.	.
*	*	*	*Xlig	*	*	*	*	*	*	*	*
2.E/	.	.	1G	.	.	1g	-nes	.	.	.	.
4F/	.	.	.	.	.	.	.	.	.	.	.
*	*	*	*	*	*	*	*Xij	*	*	*	*
=117	=117	=117	=117	=117	=117	=117	=117	=117	=117	=117	=117
!	!	!	!LO:SIC:v:t=custos c	!	!	!	!	!	!	!	!
2G/	.	.	1r	.	.	2r	.	.	0ryy	.	.
2C/	et	.	.	.	.	2g\	et	.	.	.	.
!	!	!	!LO:LB:g=original	!	!	!	!	!	!	!	!
2C/	di-	.	1c	et	.	2g\	di-	.	.	.	.
2C/	-vi-	.	.	.	.	2g\	-vi-	.	.	.	.
=118	=118	=118	=118	=118	=118	=118	=118	=118	=118	=118	=118
0C	-tes	.	2c\	di-	.	1g	-tes	.	0ryy	.	.
.	.	.	2c\	-vi-	.	.	.	.	.	.	.
!	!	!	!	!	!	!LO:SIC:v:t=custos g	!	!	!	!	!
.	.	.	1c	-tes	.	2r	.	.	.	.	.
!	!	!	!	!	!	!LO:LB:g=original	!	!	!	!	!
.	.	.	.	.	.	2.g\	di-	.	.	.	.
=119	=119	=119	=119	=119	=119	=119	=119	=119	=119	=119	=119
0r	.	.	2r	.	.	.	.	.	0ryy	.	.
.	.	.	.	.	.	4f\	-mi-	.	.	.	.
.	.	.	2c\	di-	.	4e\	.	.	.	.	.
.	.	.	.	.	.	4d\	-ſit	.	.	.	.
.	.	.	1c	-mi-	.	4e\	.	.	.	.	.
.	.	.	.	.	.	4f\	.	.	.	.	.
.	.	.	.	.	.	4g\	.	.	.	.	.
.	.	.	.	.	.	4e\	.	.	.	.	.
=120	=120	=120	=120	=120	=120	=120	=120	=120	=120	=120	=120
2r	.	.	1A	-ſit	.	2f\	.	.	0ryy	.	.
2.c\	.	.	.	.	.	2.e\	.	.	.	.	.
.	.	.	1c	i-	.	.	.	.	.	.	.
4B/	di-	.	.	.	.	4d/	in-	.	.	.	.
4A/	.	.	.	.	.	1c\	.	.	.	.	.
4G/	.	.	.	.	.	.	.	.	.	.	.
=121	=121	=121	=121	=121	=121	=121	=121	=121	=121	=121	=121
*	*	*	*lig	*	*	*	*	*	*	*	*
2F/	.	.	1d	-na-	.	.	.	.	0ryy	.	.
2G/	-mi-	.	.	.	.	2B/	.	.	.	.	.
2.A/	-ſit	.	1c	.	.	2.c/	-a-	.	.	.	.
4G/	.	.	.	.	.	4B/	.	.	.	.	.
*	*	*	*Xlig	*	*	*	*	*	*	*	*
=122	=122	=122	=122	=122	=122	=122	=122	=122	=122	=122	=122
2F/	in-	.	00c	-nes	.	2A/	.	.	0ryy	.	.
2E/	.	.	.	.	.	2G/	.	.	.	.	.
1F	-a-	.	.	.	.	1A	-nes	.	.	.	.
=123	=123	=123	=123	=123	=123	=123	=123	=123	=123	=123	=123
0C	-nes	.	.	.	.	0G	.	.	0ryy	.	.
=124||	=124||	=124||	=124||	=124||	=124||	=124||	=124||	=124||	=124||	=124||	=124||
*M2/1	*	*	*M2/1	*	*	*M2/1	*	*	*M2/1	*	*
*met(c|)	*	*	*met(c|)	*	*	*met(c|)	*	*	*met(c|)	*	*
1c	Si-	.	1r	.	.	0r	.	.	1cc	Si-	.
2A/	-cut	.	1c	Si-	.	.	.	.	1cc	-cut	.
2F/	lo-	.	.	.	.	.	.	.	.	.	.
=125	=125	=125	=125	=125	=125	=125	=125	=125	=125	=125	=125
2c\	-quu-	.	2A/	-cut	.	1r	.	.	1cc	lo-	.
2c\	-t(us)	.	2F/	lo-	.	.	.	.	.	.	.
1F	eſt	.	2c\	-quu-	.	1f	Si-	.	2cc\	-quu-	.
.	.	.	2c\	-tus	.	.	.	.	2cc\	-tus	.
=126	=126	=126	=126	=126	=126	=126	=126	=126	=126	=126	=126
!LO:SIC:v:t=custos c	!	!	!	!	!	!	!	!	!	!	!
2r	.	.	1A	e(st)	.	2e\	-cut	.	1cc	e(st)	.
!LO:LB:g=original	!	!	!	!	!	!	!	!	!	!	!
2c\	ad	.	.	.	.	2c/	lo-	.	.	.	.
2A\	pa-	.	1r	.	.	2e\	-quu-	.	2r	.	.
2F/	-tres	.	.	.	.	2f\	-tus	.	1cc\	ad	.
=127	=127	=127	=127	=127	=127	=127	=127	=127	=127	=127	=127
1G	noſ-	.	2r	.	.	1d	.	.	.	.	.
.	.	.	1G	ad	.	.	.	.	2b\	pa-	.
2E/	-tros	.	.	.	.	2e\	eſt	.	1cc	-tres	.
1F/	.	.	1.A\	p(at)-	.	2c/	.	.	.	.	.
=128	=128	=128	=128	=128	=128	=128	=128	=128	=128	=128	=128
*	*	*	*	*	*	*	*	*	*	*	*
.	.	.	.	.	.	1f	.	.	0dd	.	.
2D/	.	.	.	.	.	.	.	.	.	.	.
1G	.	.	1B	-res	.	2d/	.	.	.	.	.
.	.	.	.	.	.	1g\	.	.	.	.	.
=129	=129	=129	=129	=129	=129	=129	=129	=129	=129	=129	=129
*	*	*	*lig	*	*	*	*	*	*	*	*
2.C/	.	.	1c	no-	.	.	.	.	0ee	.	.
.	.	.	.	.	.	2f\	.	.	.	.	.
4D/	.	.	.	.	.	.	.	.	.	.	.
!	!	!	!	!	!	!LO:SIC:v:t=custos d	!	!	!	!	!
4E/	.	.	1C	.	.	2e\	.	.	.	.	.
4F/	.	.	.	.	.	.	.	.	.	.	.
!	!	!	!	!	!	!LO:LB:g=original	!	!	!	!	!
1G/	.	.	.	.	.	2.d/	.	.	.	.	.
*	*	*	*Xlig	*	*	*	*	*	*	*	*
=130	=130	=130	=130	=130	=130	=130	=130	=130	=130	=130	=130
.	.	.	0D	-ſtros	.	.	.	.	0ff	.	.
.	.	.	.	.	.	4c/	.	.	.	.	.
4F/	.	.	.	.	.	1c	.	.	.	.	.
4E/	.	.	.	.	.	.	.	.	.	.	.
1F	.	.	.	.	.	.	.	.	.	.	.
.	.	.	.	.	.	2B/	.	.	.	.	.
*	*	*	*	*	*	*	*	*	*	*	*
=131	=131	=131	=131	=131	=131	=131	=131	=131	=131	=131	=131
1G	.	.	2r	.	.	1c	.	.	1ee	no-	.
*	*	*	*	*ij	*	*	*	*	*	*	*
.	.	.	2C/	ad	.	.	.	.	.	.	.
2r	.	.	2G/	.	.	2B/	.	.	2dd\	.	.
1c\	noſ-	.	2C/	.	.	4c/	.	.	1ee\	.	.
.	.	.	.	.	.	4d/	.	.	.	.	.
=132	=132	=132	=132	=132	=132	=132	=132	=132	=132	=132	=132
!	!	!	!LO:SIC:v:t=custos d	!	!	!	!	!	!	!	!
.	.	.	1c	pa-	.	4e\	.	.	.	.	.
.	.	.	.	.	.	4f\	.	.	.	.	.
4B/	-tros	.	.	.	.	2.g\	.	.	4dd\	-ſtros	.
4A/	.	.	.	.	.	.	.	.	4cc\	.	.
!	!	!	!LO:LB:g=original	!	!	!	!	!	!	!	!
2G/	.	.	2d\	-tres	.	.	.	.	2b\	.	.
.	.	.	.	.	.	4f\	.	.	.	.	.
2A/	.	.	2c\	.	.	4e/	.	.	2cc\	.	.
.	.	.	.	.	.	4d/	.	.	.	.	.
=133	=133	=133	=133	=133	=133	=133	=133	=133	=133	=133	=133
1E	.	.	2B\	.	.	1e	.	.	1g	.	.
.	.	.	1e	no-	.	.	.	.	.	.	.
!	!	!	!	!	!	!	!	!	!LO:SIC:v:t=custos ee	!	!
1r	.	.	.	.	.	2r	.	.	2r	.	.
!	!	!	!	!	!	!	!	!	!LO:LB:g=original	!	!
.	.	.	4d\	.	.	2c/	.	.	2ee\	ad	.
.	.	.	4c\	.	.	.	.	.	.	.	.
=134	=134	=134	=134	=134	=134	=134	=134	=134	=134	=134	=134
0r	.	.	2B/	.	.	2d/	ad	.	2dd\	pa-	.
.	.	.	2c\	.	.	2c/	.	.	1ee	-tres	.
.	.	.	1A	-stros	.	2e\	p(at)-	.	.	.	.
.	.	.	.	.	.	2f\	-res	.	4dd\	.	.
.	.	.	.	.	.	.	.	.	4cc\	.	.
*	*	*	*	*Xij	*	*	*	*	*	*	*
=135	=135	=135	=135	=135	=135	=135	=135	=135	=135	=135	=135
0r	.	.	0r	.	.	2g\	no-	.	2b\	.	.
.	.	.	.	.	.	2.a\	.	.	2cc\	.	.
.	.	.	.	.	.	.	.	.	2g/	.	.
.	.	.	.	.	.	4g\	.	.	.	.	.
.	.	.	.	.	.	1g\	.	.	2b\	no-	.
=136	=136	=136	=136	=136	=136	=136	=136	=136	=136	=136	=136
1r	.	.	1r	.	.	.	.	.	1a	-ſtros	.
.	.	.	.	.	.	2f\	.	.	.	.	.
2r	.	.	2r	.	.	0g	-ſtros	.	2g/	.	.
2C/	ad	.	2c\	ad	.	.	.	.	2ee\	.	.
=137	=137	=137	=137	=137	=137	=137	=137	=137	=137	=137	=137
2G/	pa-	.	2B\	.	.	.	.	.	2dd\	.	.
1C	-tres	.	1c	pa-	.	.	.	.	1ee	.	.
.	.	.	.	.	.	1r	.	.	.	.	.
2D/	.	.	4B/	.	.	.	.	.	4dd\	.	.
.	.	.	4A/	-tres	.	.	.	.	4cc\	.	.
=138	=138	=138	=138	=138	=138	=138	=138	=138	=138	=138	=138
2E/	.	.	2G/	.	.	2r	.	.	4b\	.	.
.	.	.	.	.	.	.	.	.	4a\	.	.
2F/	.	.	2A/	.	.	2a\	ad	.	1dd	.	.
2G/	.	.	2B\	no-	.	2g\	p(at)-	.	.	.	.
2A/	.	.	2c\	.	.	2f\	-res	.	1cc\	.	.
=139	=139	=139	=139	=139	=139	=139	=139	=139	=139	=139	=139
!LO:SIC:v:t=custos C	!	!	!	!	!	!	!	!	!	!	!
1G	no-	.	1d	-ſtros	.	1g	n(os)-	.	.	.	.
.	.	.	.	.	.	.	.	.	2b\	.	.
!LO:LB:g=original	!	!	!	!	!	!	!	!	!	!	!
2.C/	-ſtros	.	0c	.	.	1e	-(t)ros	.	1cc	.	.
4D/	.	.	.	.	.	.	.	.	.	.	.
=140	=140	=140	=140	=140	=140	=140	=140	=140	=140	=140	=140
!	!	!	!	!	!	!LO:SIC:v:t=custos c	!	!	!	!	!
4E/	.	.	.	.	.	0r	.	.	1r	.	.
4C/	.	.	.	.	.	.	.	.	.	.	.
1F	.	.	.	.	.	.	.	.	.	.	.
.	.	.	1r	.	.	.	.	.	0cc	A-	.
2E/	.	.	.	.	.	.	.	.	.	.	.
!	!	!	!	!	!	!LO:LB:g=original	!	!	!	!	!
=141	=141	=141	=141	=141	=141	=141	=141	=141	=141	=141	=141
2F/	.	.	0r	.	.	2.c/	A-	.	.	.	.
1A	.	.	.	.	.	.	.	.	.	.	.
.	.	.	.	.	.	4d/	-bra-	.	.	.	.
.	.	.	.	.	.	4e/	.	.	1cc	-bra-	.
.	.	.	.	.	.	4c/	-ham	.	.	.	.
4G/	.	.	.	.	.	1f\	.	.	.	.	.
4F/	.	.	.	.	.	.	.	.	.	.	.
=142	=142	=142	=142	=142	=142	=142	=142	=142	=142	=142	=142
1c	.	.	0r	.	.	.	.	.	1cc	-hae	.
.	.	.	.	.	.	2e\	.	.	.	.	.
1F	.	.	.	.	.	1f	.	.	1r	.	.
=143	=143	=143	=143	=143	=143	=143	=143	=143	=143	=143	=143
2r	.	.	2.c\	A-	.	2.g\	.	.	1cc	et	.
1c	a-	.	.	.	.	.	.	.	.	.	.
.	.	.	4d\	-br-	.	4f\	.	.	.	.	.
.	.	.	4e\	.	.	2g\	.	.	2.cc\	ſe-	.
.	.	.	4c\	.	.	.	.	.	.	.	.
2F/	-bra-	.	1f\	-ham	.	2a\	.	.	.	.	.
.	.	.	.	.	.	.	.	.	4cc\	-mi-	.
=144	=144	=144	=144	=144	=144	=144	=144	=144	=144	=144	=144
*lig	*	*	*	*	*	*	*	*	*	*	*
1c	-ha(m)	.	.	.	.	1g	.	.	2cc\	-ni	.
.	.	.	2e\	.	.	.	.	.	2cc\	e-	.
!	!	!	!	!	!	!	!	!	!LO:SIC:v:t=custos a	!	!
1F	.	.	1f	.	.	2r	.	.	1a	-ius	.
.	.	.	.	.	.	2f\	et	.	.	.	.
*Xlig	*	*	*	*	*	*	*	*	*	*	*
!	!	!	!	!	!	!	!	!	!LO:LB:g=original	!	!
=145	=145	=145	=145	=145	=145	=145	=145	=145	=145	=145	=145
2r	.	.	0r	.	.	2d/	ſe-	.	1a	in	.
1F	et	.	.	.	.	2f\	-mi-	.	.	.	.
*	*	*	*	*	*	*	*	*	*lig	*	*
.	.	.	.	.	.	2f\	-ni	.	0.cc	ſae-	.
2E/	ſe-	.	.	.	.	2g\	.	.	.	.	.
=146	=146	=146	=146	=146	=146	=146	=146	=146	=146	=146	=146
2F/	-mi-	.	1r	.	.	2a\	e-	.	.	-ae-	.
2G/	-ni	.	.	.	.	2g\	-ius	.	.	.	.
1A	e-	.	2r	.	.	2.e\	.	.	.	.	.
!	!	!	!LO:SIC:v:t=custos B	!	!	!	!	!	!	!	!
.	.	.	2c/	et	.	.	.	.	.	.	.
.	.	.	.	.	.	4f\	.	.	.	.	.
!	!	!	!LO:LB:g=original	!	!	!	!	!	!	!	!
=147	=147	=147	=147	=147	=147	=147	=147	=147	=147	=147	=147
2G/	-ius	.	2B/	ſe-	.	2g\	.	.	0dd	.	.
2F/	.	.	2A/	-mi-	.	2a\	.	.	.	.	.
1G	.	.	1B	-ni	.	2d/	.	.	.	.	.
.	.	.	.	.	.	1g\	.	.	.	.	.
*	*	*	*	*	*	*	*	*	*Xlig	*	*
=148	=148	=148	=148	=148	=148	=148	=148	=148	=148	=148	=148
2E/	in	.	2G/	.	.	.	.	.	2.cc\	.	.
1F	.	.	2.A/	e-	.	2c/	in	.	.	.	.
.	.	.	.	.	.	.	.	.	4b\	.	.
.	.	.	.	.	.	2d/	ſae-	.	2a/	-cu-	.
.	.	.	4D/	-ius	.	.	.	.	.	.	.
4E/	.	.	1G/	.	.	1e\	-cu-	.	2g/	-la	.
4D/	.	.	.	.	.	.	.	.	.	.	.
=149	=149	=149	=149	=149	=149	=149	=149	=149	=149	=149	=149
2C/	.	.	.	.	.	.	.	.	2r	.	.
*	*	*	*	*	*	*	*	*	*	*ij	*
2D/	ſae-	.	2F/	in	.	4d/	-la	.	2a/	in	.
.	.	.	.	.	.	4c/	.	.	.	.	.
2E/	.	.	2G/	.	.	2B/	.	.	2g/	.	.
!LO:SIC:v:t=custos C	!	!	!	!	!	!	!	!	!	!	!
2F/	.	.	2D/	ſae-	.	1d\	.	.	2f/	sase-	.
!LO:LB:g=original	!	!	!	!	!	!	!	!	!	!	!
=150	=150	=150	=150	=150	=150	=150	=150	=150	=150	=150	=150
1C	-cu-	.	2E/	.	.	.	.	.	2g/	.	.
.	.	.	1G	.	.	1c	.	.	2e/	.	.
1D	.	.	.	.	.	.	.	.	1f	-cu-	.
!	!	!	!	!	!	!LO:SIC:v:t=custos c	!	!	!	!	!
.	.	.	2F/	-cu-	.	2B/	.	.	.	.	.
!	!	!	!	!	!	!LO:LB:g=original	!	!	!	!	!
=151	=151	=151	=151	=151	=151	=151	=151	=151	=151	=151	=151
0.C	-la	.	1G	-la	.	2.c/	.	.	1e	-la	.
.	.	.	.	.	.	4B/	.	.	.	.	.
.	.	.	1r	.	.	2A/	.	.	2r	.	.
*	*	*	*	*	*	*	*	*	*lig	*Xij	*
.	.	.	.	.	.	2G/	.	.	1.e/	in	.
=152	=152	=152	=152	=152	=152	=152	=152	=152	=152	=152	=152
.	.	.	1c	et	.	1G	.	.	.	.	.
2r	.	.	1.c	ſe-	.	2r	.	.	1.a	.	.
2F/	et	.	.	.	.	2.A/	in	.	.	.	.
*	*	*	*	*	*	*	*	*	*Xlig	*	*
=153	=153	=153	=153	=153	=153	=153	=153	=153	=153	=153	=153
2F/	.	.	.	.	.	.	.	.	.	.	.
.	.	.	.	.	.	4B/	.	.	.	.	.
*	*	*	*	*	*	*	*	*	*lig	*	*
2E/	ſe-	.	2c\	-mi-	.	4c/	.	.	1g	ſae-	.
.	.	.	.	.	.	4d/	.	.	.	.	.
1C	-mi-	.	1c	-ni	.	1.e	.	.	.	.	.
*	*	*	*	*	*	*	*	*	*col	*	*
.	.	.	.	.	.	.	.	.	2.cc\	.	.
*	*	*	*	*	*	*	*	*	*Xlig	*	*
=154	=154	=154	=154	=154	=154	=154	=154	=154	=154	=154	=154
1C	-ni	.	1c	e-	.	.	.	.	.	.	.
.	.	.	.	.	.	.	.	.	4b\	.	.
*	*	*	*	*	*	*	*	*	*Xcol	*	*
.	.	.	.	.	.	2e\	.	.	4a\	.	.
.	.	.	.	.	.	.	.	.	4g\	.	.
2D/	e-	.	1A	-ius	.	2d\	.	.	4f/	.	.
.	.	.	.	.	.	.	.	.	4e/	.	.
2.F/	-ius	.	.	.	.	2c/	.	.	2.a/	.	.
=155	=155	=155	=155	=155	=155	=155	=155	=155	=155	=155	=155
.	.	.	1c	in	.	2f\	ſae-	.	.	.	.
4G/	in	.	.	.	.	.	.	.	4g/	.	.
2A/	.	.	.	.	.	2e\	-cu-	.	1cc	.	.
2G/	ſae-	.	2.d\	ſae-	.	1g	-la	.	.	.	.
2G/	-cu-	.	.	.	.	.	.	.	2b\	-cu-	.
.	.	.	4d\	-cu-	.	.	.	.	.	.	.
=156	=156	=156	=156	=156	=156	=156	=156	=156	=156	=156	=156
!	!	!	!LO:TX:a:B:t=Sicut erat,\nſuper primu(m)\nverſu(m).	!	!	!LO:TX:a:B:t=Sicut erat ad primu(m) versu	!	!	!LO:TX:a:B:t=Sicut erat\nsuper primu(m)\nvers(us).	!	!
0C	-la	.	0c	-la.	.	0g	.	.	0cc	-la	.
==157	==157	==157	==157	==157	==157	==157	==157	==157	==157	==157	==157
*M4/2	*	*	*yyM4/2	*	*	*yyM4/2	*	*	*yyM4/2	*	*
*met(c)	*	*	*yymet(c)	*	*	*yymet(c)	*	*	*yymet(c)	*	*
!	!	!	!LO:TX:t=P:problem:skopiowane takty 1-16	!	!	!LO:TX:t=P:problem:skopiowane takty 1-16	!	!	!LO:TX:t=P:problem:skopiowane takty 1-16	!	!
0r	.	.	0ryy	.	.	0ryy	.	.	1gyy	Et	Si-
.	.	.	.	.	.	.	.	.	1ayy	e-	-cut
=158	=158	=158	=158	=158	=158	=158	=158	=158	=158	=158	=158
0r	.	.	0ryy	.	.	1ryy	.	.	2g/yy	-xul-	.
.	.	.	.	.	.	.	.	.	1ccyy	-ta-	e-
.	.	.	.	.	.	1Gyy	Et	Si-	.	.	.
.	.	.	.	.	.	.	.	.	2b\yy	.	-rat
=159	=159	=159	=159	=159	=159	=159	=159	=159	=159	=159	=159
0r	.	.	0ryy	.	.	1Ayy	.	-cut	1ccyy	-vit	.
.	.	.	.	.	.	2G/yy	e-	.	2ryy	.	.
*	*	*	*	*	*	*	*	*	*	*ij	*ij
.	.	.	.	.	.	1c\yy	-xul-	e-	2c/yy	et	si-
=160	=160	=160	=160	=160	=160	=160	=160	=160	=160	=160	=160
1G	Si-	.	0ryy	.	.	.	.	.	1dyy	e-	-cut
.	.	.	.	.	.	2B/yy	-ta-	-rat	.	.	.
1A	.	.	.	.	.	1cyy	-vit	.	1cyy	.	.
=161	=161	=161	=161	=161	=161	=161	=161	=161	=161	=161	=161
2G/	-cut	.	1ryy	.	.	2B/yy	.	.	2d/yy	.	.
1c	e-	.	.	.	.	2c/yy	.	.	2e/yy	.	.
.	.	.	2ryy	.	.	1dyy	.	.	2f/yy	.	.
2B\	-rat	.	2G/yy	Et	Si-	.	.	.	1g\yy	.	.
=162	=162	=162	=162	=162	=162	=162	=162	=162	=162	=162	=162
1c	.	.	1Ayy	.	-cut	1cyy	ſpi-	.	.	.	.
.	.	.	.	.	.	.	.	.	2f/yy	-xul-	e-
2r	.	.	2G/yy	e-	e-	2d/yy	-ri-	.	2g/yy	.	.
2C/	.	.	1c\yy	-xul-	.	2e/yy	-tus	.	1a\yy	.	.
=163	=163	=163	=163	=163	=163	=163	=163	=163	=163	=163	=163
1D	.	.	.	.	.	1fyy	me-	.	.	.	.
.	.	.	2B/yy	-ta-	-rat	.	.	.	4g/yy	.	.
.	.	.	.	.	.	.	.	.	4f/yy	.	.
*	*	*	*	*	*	*	*	*	*	*	*
1C	.	.	1cyy	-vit	in	1eyy	-us	.	2a/yy	-ta-	-rat
.	.	.	.	.	.	.	.	.	2.g/yy	.	.
*	*	*	*	*	*	*	*	*	*	*	*Xij
=164	=164	=164	=164	=164	=164	=164	=164	=164	=164	=164	=164
1G	.	.	2d/yy	.	prin-	1ryy	.	.	.	.	.
.	.	.	.	.	.	.	.	.	4f/yy	.	.
.	.	.	1eyy	.	-ci-	.	.	.	4e/yy	.	.
.	.	.	.	.	.	.	.	.	4d/yy	.	.
0A	.	.	.	.	.	2ryy	.	.	1cyy	-vit	.
*	*	*	*	*	*	*	*ij	*	*	*Xij	*
.	.	.	4d\yy	.	-pi-	4A/yy	spi-	in	.	.	.
.	.	.	4c\yy	.	.	4B/yy	.	.	.	.	.
*	*	*	*	*	*	*	*	*	*	*	*
=165	=165	=165	=165	=165	=165	=165	=165	=165	=165	=165	=165
.	.	.	2.e\yy	.	-o	4c/yy	-ri-	.	2ryy	.	.
.	.	.	.	.	.	4d/yy	.	.	.	.	.
!	!	!	!	!	!	!	!	!	!LO:SIC:v:t=custos d	!	!
.	.	.	.	.	.	4e/yy	-tus	.	2c/yy	ſpi-	ſi-
.	.	.	4d\yy	.	.	4f/yy	.	.	.	.	.
!	!	!	!	!	!	!	!	!	!LO:LB:g=original	!	!
1G	.	.	1Byy	.	.	2g\yy	me-	.	2.d/yy	-ri-	.
!	!	!	!	!	!	!LO:SIC:v:t=custos A	!	!	!	!	!
.	.	.	.	.	.	2G/yy	-us	.	.	.	.
.	.	.	.	.	.	.	.	.	4e/yy	-tus	-cut
*	*	*	*	*	*	*	*Xij	*	*	*	*
!	!	!	!	!	!	!LO:LB:g=original	!	!	!	!	!
=166	=166	=166	=166	=166	=166	=166	=166	=166	=166	=166	=166
0r	.	.	2ryy	.	.	4A/yy	.	prin-	2f/yy	.	.
.	.	.	.	.	.	4B/yy	.	-ci-	.	.	.
.	.	.	2.e\yy	.	.	4c/yy	.	-pi-	2.g/yy	.	.
.	.	.	.	.	.	4d/yy	.	-o	.	.	.
.	.	.	.	.	.	4e\yy	.	.	.	.	.
.	.	.	4d\yy	.	.	4f\yy	.	.	4f/yy	me-	e-
.	.	.	2c/yy	.	.	1g\yy	.	.	4g/yy	-us	-rat
.	.	.	.	.	.	.	.	.	4a/yy	.	.
=167	=167	=167	=167	=167	=167	=167	=167	=167	=167	=167	=167
0r	.	.	2B/yy	.	.	.	.	.	4b\yy	.	.
.	.	.	.	.	.	.	.	.	4g/yy	.	.
.	.	.	2c/yy	.	.	4f\yy	.	.	1ccyy	.	.
.	.	.	.	.	.	4e\yy	.	.	.	.	.
.	.	.	1Gyy	.	.	4d\yy	.	.	.	.	.
.	.	.	.	.	.	4c\yy	.	.	.	.	.
.	.	.	.	.	.	2d\yy	.	.	2b\yy	.	.
=168	=168	=168	=168	=168	=168	=168	=168	=168	=168	=168	=168
!LO:SIC:v:t=custos F	!	!	!	!	!	!	!	!	!	!	!
1C	in	.	2ryy	.	.	2c\yy	.	.	2.cc\yy	.	in
.	.	.	1cyy	ſpi-	et	2e\yy	.	.	.	.	.
.	.	.	.	.	.	.	.	.	4b\yy	.	.
!LO:LB:g=original	!	!	!	!	!	!	!	!	!	!	!
2F/	prin-	.	.	.	.	2f\yy	ſpi-	et	2a\yy	.	.
!	!	!	!LO:SIC:v:t=custos c	!	!	!	!	!	!	!	!
2G/	.	.	2B/yy	-ri-	.	2d\yy	-ri-	.	2.g/yy	.	.
!	!	!	!LO:LB:g=original	!	!	!	!	!	!	!	!
=169	=169	=169	=169	=169	=169	=169	=169	=169	=169	=169	=169
*	*	*	*yylig	*	*	*	*	*	*	*	*
2E/	-ci-	.	1cyy	-tus	nunc	2e\yy	-tus	nu(n)c	.	.	.
.	.	.	.	.	.	.	.	.	4e/yy	.	prin-
2.F/	-pi-	.	.	.	.	2.A/yy	.	.	2.a/yy	.	.
.	.	.	1dyy	.	.	.	.	.	.	.	.
4E/	-o	.	.	.	.	4B/yy	me-	et	4g/yy	me-	-ci-
4D/	.	.	.	.	.	1c\yy	.	.	4f/yy	.	.
4C/	.	.	.	.	.	.	.	.	4e/yy	.	.
*	*	*	*Xlig	*	*	*	*	*	*	*	*
=170	=170	=170	=170	=170	=170	=170	=170	=170	=170	=170	=170
1D	.	.	1dyy	.	et	.	.	.	1fyy	.	-pi-
.	.	.	.	.	.	2B/yy	-us	.	.	.	.
2C/	.	.	4G/yy	me-	ſem-	2c/yy	.	.	1eyy	-us	-o
.	.	.	4A/yy	.	.	.	.	.	.	.	.
2r	.	.	4B\yy	-us	-per	4G/yy	.	.	.	.	.
.	.	.	4c\yy	.	.	4A/yy	.	.	.	.	.
=171	=171	=171	=171	=171	=171	=171	=171	=171	=171	=171	=171
2r	.	.	2d\yy	.	.	4B/yy	.	ſem-	1ryy	.	.
.	.	.	.	.	.	4G/yy	.	.	.	.	.
4C/	.	.	1eyy	.	.	1cyy	.	-per	.	.	.
4D/	.	.	.	.	.	.	.	.	.	.	.
4E/	.	.	.	.	.	.	.	.	4g/yy	.	.
4F/	.	.	.	.	.	.	.	.	4a/yy	ſpi-	.
4G/	.	.	1d\yy	.	.	2B/yy	.	.	4b\yy	.	et
4A/	.	.	.	.	.	.	.	.	4cc\yy	-ri-	.
=172	=172	=172	=172	=172	=172	=172	=172	=172	=172	=172	=172
2B\	.	.	.	.	.	2G/yy	.	.	2dd\yy	.	.
1c	.	.	2c\yy	.	.	2ryy	.	.	1eeyy	-tus	.
.	.	.	1fyy	.	.	1ryy	.	.	.	.	.
!LO:TX:a:B:t=2is Vide in primo verſu.	!	!	!	!	!	!	!	!	!	!	!
2B\	.	.	.	.	.	.	.	.	2dd\yy	.	nunc
==	==	==	==	==	==	==	==	==	==	==	==
*-	*-	*-	*-	*-	*-	*-	*-	*-	*-	*-	*-
!!!system-decoration: [(s1,s2,s3,s4)]
!!!AIN: 1 alto 2 male 1 vox
!!!ENC: Andrzej Gręziak
!!!END: 2022-01-09
!!!ENC: Natalia Wrzos
!!!END: 2022-01-09
